X:1
T:Title
%%score ( 1 2 3 ) { 4 | 5 }
L:1/8
Q:1/4=100
M:4/4
K:Eb
V:1 treble nm="Grand Piano, Staff"
V:2 treble 
V:3 treble 
V:4 bass nm="Choir Pad, Staff-1"
V:5 bass 
V:1
 [B,E]2 [DF]2 [EG]2 E2 | .G2 .G2 z4 | [B,B]2 [GB]2 [EA]2 [FA]2 | .G2 z2 z4 | F2 [EG]2 [EA]3 [EG] | %5
w: By~Paris,~1881 * * *|||||
 .A2 .F2 z4 | [B,E]2 [CE]2 [CF]2 [DF]2 | .G2 .G2 z4 | BcBA [EG]2 [B,G]2 | .A2 .A2 z4 | .B2 .B2 z4 | %11
w: ||||||
 z2 F2 z4 |] %12
w: |
V:2
 x8 | E-[EF]E-[EA] [DB]2 [EG]2 | x8 | E-[EF][EG]E [DF]4 | x8 | E-[EG]C-[CE] [DF]2 B,2 | x8 | %7
 E-[EF]E-[E=A] [FB]4 | E2 F2 z4 | E-[EB]E-[EG] [DF]2 [DF]2 | E-[Ec]D-[DA] [EG][FB][Ee][FA] | %11
 G2 z D E4 |] %12
V:3
 x8 | x8 | x8 | x8 | x8 | x8 | x8 | x8 | x8 | x8 | x8 | F .E3 z4 |] %12
V:4
 G,2 B,2 B,2 B,2 | B,2 E,2 F,2 G,2 | E2 B,2 C2 B,2 | B,2 B,2 B,4 | B,2 B,2 A,3 B, | %5
 CB,A,G, B,2 D,2 | E,2 A,2 A,2 B,2 | B,2[K:treble] E2 D4 | E2 B,2 B,2 E2 | A,2 C2 F,2 B,2 | %10
 B,2 B,2 B,F,G,C | B,2 A,2 G,4 |] %12
V:5
 E,2 B,,2 E,2 G,2 | E,2 C,2 B,,2 E,2 | G,2 E,2 C,2 D,2 | E,2 G,2 z4 | D,2 E,2 C,3 E, | %5
 A,,2 C,2 B,,2 A,,2 | G,,2 A,,G,, F,,2 B,,2 | E,2 C,2 B,,4 | G,2 D,2 D,E,D,=B,, | %9
 C,2 A,,2 B,,C,B,,A,, | G,,2 B,,2 E,D,C,A,, | B,,2 B,,2 E,4 |] %12

